X:838
T:Little Diamond
S:Clare McLaughlin, June Jam 17/6/06
Z:Nigel Gatherer
M:2/4
L:1/8
K:D
A>B AF | DF Ad | A>B AF | GF EF/E/ |
DE  FG | AB cd | e>d ce |1dA BG   :|
                         2d2 d2   ||
fd  ge | fd cB | Ad  cd | fe e>g   |
fd  ge | fd cB | Ag  ec | d2 d2   :|
